flaticon/weather/rainbow-2.svg

<svg xmlns="http://www.w3.org/2000/svg" width="32" height="32" viewBox="0 0 24 24">
    <path d="M 12.398438 13.199219 C 6.664062 13.199219 2 17.863281 2 23.601562 C 2 23.820312 2.179688 24 2.398438 24 C 2.621094 24 2.800781 23.820312 2.800781 23.601562 C 2.800781 18.308594 7.105469 14 12.398438 14 C 17.691406 14 22 18.308594 22 23.601562 C 22 23.820312 22.179688 24 22.398438 24 C 22.621094 24 22.800781 23.820312 22.800781 23.601562 C 22.800781 17.863281 18.132812 13.199219 12.398438 13.199219 Z M 12.398438 13.199219"/>
    <path d="M 12.398438 15.304688 C 7.828125 15.304688 4.105469 19.027344 4.105469 23.601562 C 4.105469 23.820312 4.285156 24 4.503906 24 C 4.726562 24 4.90625 23.820312 4.90625 23.601562 C 4.90625 19.46875 8.265625 16.105469 12.398438 16.105469 C 16.53125 16.105469 19.894531 19.46875 19.894531 23.601562 C 19.894531 23.820312 20.074219 24 20.292969 24 C 20.515625 24 20.695312 23.820312 20.695312 23.601562 C 20.695312 19.027344 16.972656 15.304688 12.398438 15.304688 Z M 12.398438 15.304688"/>
    <path d="M 12.398438 17.410156 C 8.988281 17.410156 6.210938 20.1875 6.210938 23.601562 C 6.210938 23.820312 6.390625 24 6.609375 24 C 6.832031 24 7.011719 23.820312 7.011719 23.601562 C 7.011719 20.628906 9.429688 18.210938 12.398438 18.210938 C 15.371094 18.210938 17.789062 20.628906 17.789062 23.601562 C 17.789062 23.820312 17.96875 24 18.191406 24 C 18.410156 24 18.589844 23.820312 18.589844 23.601562 C 18.589844 20.1875 15.8125 17.410156 12.398438 17.410156 Z M 12.398438 17.410156"/>
    <path d="M 12.398438 19.515625 C 10.148438 19.515625 8.316406 21.347656 8.316406 23.601562 C 8.316406 23.820312 8.496094 24 8.714844 24 C 8.9375 24 9.117188 23.820312 9.117188 23.601562 C 9.117188 21.789062 10.589844 20.316406 12.398438 20.316406 C 14.210938 20.316406 15.683594 21.789062 15.683594 23.601562 C 15.683594 23.820312 15.863281 24 16.085938 24 C 16.304688 24 16.484375 23.820312 16.484375 23.601562 C 16.484375 21.347656 14.652344 19.515625 12.398438 19.515625 Z M 12.398438 19.515625"/>
    <path d="M12.398438 21.621094C11.308594 21.621094 10.421875 22.507812 10.421875 23.601562 10.421875 23.820312 10.601562 24 10.820312 24 11.042969 24 11.222656 23.820312 11.222656 23.601562 11.222656 22.949219 11.75 22.421875 12.398438 22.421875 13.050781 22.421875 13.578125 22.949219 13.578125 23.601562 13.578125 23.820312 13.757812 24 13.980469 24 14.199219 24 14.378906 23.820312 14.378906 23.601562 14.378906 22.507812 13.492188 21.621094 12.398438 21.621094zM4.128906 14.941406C4.191406 15.101562 4.34375 15.203125 4.503906 15.203125 4.550781 15.203125 4.597656 15.195312 4.644531 15.175781 4.851562 15.097656 4.957031 14.867188 4.878906 14.660156 4.5625 13.8125 4.398438 12.917969 4.398438 12 4.398438 7.808594 7.808594 4.398438 12 4.398438 16.191406 4.398438 19.601562 7.808594 19.601562 12 19.601562 12.914062 19.4375 13.808594 19.121094 14.660156 19.042969 14.867188 19.148438 15.097656 19.355469 15.175781 19.5625 15.253906 19.792969 15.148438 19.871094 14.941406 20.222656 14 20.398438 13.011719 20.398438 12 20.398438 7.367188 16.632812 3.601562 12 3.601562 7.367188 3.601562 3.601562 7.367188 3.601562 12 3.601562 13.011719 3.777344 14.003906 4.128906 14.941406zM4.128906 14.941406"/>
    <path d="M17.800781 13.59375C18.015625 13.636719 18.226562 13.496094 18.273438 13.277344 18.355469 12.859375 18.398438 12.429688 18.398438 12 18.398438 8.472656 15.527344 5.601562 12 5.601562 8.472656 5.601562 5.601562 8.472656 5.601562 12 5.601562 12.578125 5.675781 13.152344 5.828125 13.707031 5.878906 13.882812 6.039062 14 6.214844 14 6.25 14 6.285156 13.996094 6.320312 13.984375 6.535156 13.925781 6.660156 13.707031 6.601562 13.492188 6.46875 13.007812 6.398438 12.507812 6.398438 12 6.398438 8.910156 8.910156 6.398438 12 6.398438 15.089844 6.398438 17.601562 8.910156 17.601562 12 17.601562 12.375 17.5625 12.753906 17.488281 13.121094 17.445312 13.335938 17.585938 13.546875 17.800781 13.59375zM3.199219 12C3.199219 11.777344 3.019531 11.601562 2.800781 11.601562L.398438 11.601562C.179688 11.601562 0 11.777344 0 12 0 12.222656.179688 12.398438.398438 12.398438L2.800781 12.398438C3.019531 12.398438 3.199219 12.222656 3.199219 12zM23.601562 11.601562L21.199219 11.601562C20.980469 11.601562 20.800781 11.777344 20.800781 12 20.800781 12.222656 20.980469 12.398438 21.199219 12.398438L23.601562 12.398438C23.820312 12.398438 24 12.222656 24 12 24 11.777344 23.820312 11.601562 23.601562 11.601562zM12 3.199219C12.222656 3.199219 12.398438 3.019531 12.398438 2.800781L12.398438.398438C12.398438.179688 12.222656 0 12 0 11.777344 0 11.601562.179688 11.601562.398438L11.601562 2.800781C11.601562 3.019531 11.777344 3.199219 12 3.199219zM18.503906 5.894531C18.609375 5.894531 18.710938 5.855469 18.789062 5.777344L21.082031 3.484375C21.238281 3.328125 21.238281 3.074219 21.082031 2.917969 20.925781 2.761719 20.671875 2.761719 20.515625 2.917969L18.222656 5.210938C18.066406 5.367188 18.066406 5.621094 18.222656 5.777344 18.300781 5.855469 18.402344 5.894531 18.503906 5.894531zM5.210938 5.777344C5.289062 5.855469 5.390625 5.894531 5.496094 5.894531 5.597656 5.894531 5.699219 5.855469 5.777344 5.777344 5.933594 5.621094 5.933594 5.367188 5.777344 5.210938L3.484375 2.917969C3.328125 2.761719 3.074219 2.761719 2.917969 2.917969 2.761719 3.074219 2.761719 3.328125 2.917969 3.484375zM15.4375 3.898438C15.488281 3.921875 15.542969 3.929688 15.59375 3.929688 15.75 3.929688 15.898438 3.839844 15.960938 3.6875L16.429688 2.582031C16.519531 2.378906 16.421875 2.144531 16.21875 2.058594 16.015625 1.972656 15.78125 2.066406 15.695312 2.269531L15.226562 3.375C15.140625 3.578125 15.234375 3.8125 15.4375 3.898438zM8.183594 3.621094C8.246094 3.777344 8.394531 3.871094 8.554688 3.871094 8.605469 3.871094 8.65625 3.859375 8.703125 3.839844 8.910156 3.757812 9.007812 3.523438 8.925781 3.320312L8.476562 2.207031C8.390625 2.003906 8.160156 1.90625 7.953125 1.988281 7.75 2.070312 7.652344 2.300781 7.734375 2.507812zM2.269531 8.304688L3.375 8.773438C3.425781 8.796875 3.480469 8.804688 3.53125 8.804688 3.6875 8.804688 3.835938 8.714844 3.898438 8.5625 3.988281 8.359375 3.890625 8.125 3.6875 8.039062L2.582031 7.566406C2.378906 7.480469 2.144531 7.578125 2.058594 7.78125 1.972656 7.984375 2.066406 8.21875 2.269531 8.304688zM20.160156 8.703125C20.222656 8.859375 20.371094 8.953125 20.53125 8.953125 20.582031 8.953125 20.628906 8.945312 20.679688 8.925781L21.792969 8.476562C21.996094 8.390625 22.097656 8.160156 22.015625 7.953125 21.929688 7.75 21.699219 7.652344 21.492188 7.734375L20.378906 8.183594C20.175781 8.265625 20.078125 8.5 20.160156 8.703125zM20.160156 8.703125"/>
</svg>

<svg xmlns="http://www.w3.org/2000/svg" width="32" height="32" viewBox="0 0 24 24">
    <path d="M12.398 13.2C6.664 13.2 2 17.862 2 23.601a.4.4 0 0 0 .8 0C2.8 18.309 7.106 14 12.399 14 17.691 14 22 18.309 22 23.602a.4.4 0 0 0 .8 0c0-5.739-4.667-10.403-10.402-10.403zm0 0"/>
    <path d="M12.398 15.305c-4.57 0-8.293 3.722-8.293 8.297a.4.4 0 0 0 .801 0c0-4.133 3.36-7.497 7.492-7.497 4.133 0 7.497 3.364 7.497 7.497a.4.4 0 0 0 .8 0c0-4.575-3.722-8.297-8.297-8.297zm0 0"/>
    <path d="M12.398 17.41c-3.41 0-6.187 2.777-6.187 6.192a.4.4 0 0 0 .8 0 5.396 5.396 0 0 1 5.387-5.391 5.396 5.396 0 0 1 5.391 5.39.401.401 0 0 0 .8 0 6.198 6.198 0 0 0-6.19-6.19zm0 0"/>
    <path d="M12.398 19.516a4.089 4.089 0 0 0-4.082 4.086.4.4 0 0 0 .801 0 3.287 3.287 0 0 1 3.281-3.286 3.288 3.288 0 0 1 3.286 3.286.401.401 0 0 0 .8 0 4.09 4.09 0 0 0-4.086-4.086zm0 0"/>
    <path d="M12.398 21.621a1.98 1.98 0 0 0-1.976 1.98.4.4 0 0 0 .8 0 1.178 1.178 0 1 1 2.356 0 .401.401 0 0 0 .8 0 1.98 1.98 0 0 0-1.98-1.98zm0 0M4.129 14.941c.062.16.215.262.375.262a.4.4 0 0 0 .375-.543 7.582 7.582 0 0 1-.48-2.66c0-4.191 3.41-7.602 7.601-7.602s7.602 3.41 7.602 7.602c0 .914-.165 1.809-.48 2.66a.4.4 0 1 0 .75.281c.35-.941.526-1.93.526-2.941 0-4.633-3.765-8.398-8.398-8.398-4.633 0-8.398 3.765-8.398 8.398 0 1.012.175 2.004.527 2.941zm0 0"/>
    <path d="M17.8 13.594a.405.405 0 0 0 .473-.317A6.407 6.407 0 0 0 12 5.601 6.407 6.407 0 0 0 5.602 12c0 .578.074 1.152.226 1.707.05.176.211.293.387.293.035 0 .07-.004.105-.016a.4.4 0 0 0 .282-.492A5.606 5.606 0 0 1 12 6.398a5.606 5.606 0 0 1 5.488 6.723.406.406 0 0 0 .313.473zm0 0M3.2 12a.398.398 0 0 0-.4-.398H.399a.398.398 0 1 0 0 .796h2.403A.398.398 0 0 0 3.199 12zm0 0M23.602 11.602h-2.403a.398.398 0 1 0 0 .796h2.403a.398.398 0 1 0 0-.796zm0 0M12 3.2c.223 0 .398-.18.398-.4V.399a.398.398 0 1 0-.796 0v2.403c0 .219.175.398.398.398zm0 0M18.504 5.895c.105 0 .207-.04.285-.118l2.293-2.293a.4.4 0 0 0-.566-.566l-2.293 2.293a.4.4 0 0 0 .28.684zm0 0M5.21 5.777a.399.399 0 0 0 .567 0 .4.4 0 0 0 0-.566L3.484 2.918a.4.4 0 0 0-.566.566zm0 0M15.438 3.898c.05.024.105.032.156.032.156 0 .304-.09.367-.243l.469-1.105a.399.399 0 1 0-.734-.313l-.47 1.106a.399.399 0 0 0 .211.523zm0 0M8.184 3.621a.397.397 0 0 0 .52.219.399.399 0 0 0 .222-.52l-.45-1.113a.404.404 0 0 0-.523-.219.399.399 0 0 0-.219.52zm0 0M2.27 8.305l1.105.468c.05.024.105.032.156.032.156 0 .305-.09.367-.242a.396.396 0 0 0-.21-.524l-1.106-.473a.4.4 0 0 0-.312.739zm0 0M20.16 8.703c.063.156.211.25.371.25.051 0 .098-.008.149-.027l1.113-.45a.406.406 0 0 0 .223-.523.404.404 0 0 0-.524-.219l-1.113.45a.4.4 0 0 0-.219.52zm0 0"/>
</svg>
